assets/img/ANAND LOGO.svg

<svg id="mczz2gte92708881" viewBox="0 0 910 899" xmlns="http://www.w3.org/2000/svg" xmlns:xlink="http://www.w3.org/1999/xlink"><g id="mczz2gte92708881_translate"><g transform="matrix(1,0,0,1,0,0)"><g id="mczz2gte92708881" opacity="1" style="mix-blend-mode:normal"><g><g><g id="mczz2gtn70915940_translate"><g transform="matrix(1,-2.4492935982947064e-16,2.4492935982947064e-16,1,-1.1368683772161603e-13,1.1368683772161603e-13)"><g id="mczz2gtn70915940" opacity="1" style="mix-blend-mode:normal"><g><g><path id="mczz2gtn70915940_fill_path" d="M910,447.21954c0,21.45017 -1.36921,42.66538 -4.12134,63.57654c-3.33298,25.58265 -8.71276,50.73687 -16.11169,75.35205c-1.85319,5.79099 -3.80318,11.54053 -5.89148,17.2486c-5.87766,16.15673 -12.65432,31.88497 -20.27454,47.12952c-7.27447,14.60878 -15.33718,28.77534 -24.09143,42.43048l-38.07336,-89.56h-136.7489l82.52228,194.12964c-63.96276,53.36283 -142.76484,89.55994 -229.31165,101.47363v-388.20392h359.79565c3.09787,-20.88351 4.64685,-42.09872 4.64685,-63.57654c0,-21.47782 -1.4936,-27.90456 -4.48083,-48.37344h-845.71914c-2.9734,20.4827 -4.48084,27.43465 -4.48084,48.37344c0,20.9388 1.5766,42.62392 4.6883,63.57654h359.69893v388.20392c-86.54681,-11.91369 -165.34894,-48.1108 -229.31171,-101.47363l82.52232,-194.12964h-136.74892l-38.0734,89.56c-17.89574,-27.9184 -32.84575,-57.92376 -44.36596,-89.56c-1.0234,-2.79184 -2.01914,-5.59757 -2.97339,-8.41705c-0.5117,-1.47885 -1.00958,-2.95762 -1.49362,-4.43646c-0.01383,-0.05528 -0.04148,-0.1244 -0.05531,-0.17969c-8.03511,-25.98346 -13.85745,-52.58887 -17.39787,-79.56744c-2.76596,-20.99408 -4.14895,-42.22311 -4.14895,-63.57654c0,-21.35343 1.32766,-41.67026 3.96915,-62.19443c3.5266,-27.57287 9.44573,-54.73113 17.68829,-81.26743c1.24468,-3.80077 2.55851,-7.58773 3.91383,-11.33322c0.53936,-1.49267 1.07873,-2.97153 1.64575,-4.45038c54.44787,-146.1293 181.76491,-256.80776 337.79256,-287.97409l-138.14575,306.24545h136.74893l91.35959,-196.21657l91.35956,196.21657h136.74896l-138.14581,-306.24545c150.60638,30.08829 274.46594,134.25705 331.85956,272.88156c2.68298,6.44058 5.20001,12.9503 7.57874,19.54291c1.70106,4.71296 3.33302,9.46739 4.88196,14.26328c7.77234,25.59647 13.38718,51.75961 16.78931,78.33737c2.62766,20.51035 3.95538,41.26945 3.95538,62.19443z" fill-rule="nonzero" fill="rgb(255, 255, 255)" fill-opacity="1" style="mix-blend-mode:normal"></path></g></g></g></g></g></g></g></g></g></g><animateTransform href="#mczz2gtn70915940" attributeName="transform" type="rotate" values="0 455 449.5;0 455 449.5;-720 455 449.5;-720 455 449.5" dur="6s" repeatCount="indefinite" calcMode="spline" keyTimes="0;0.27;0.68;1" keySplines="0.5 0.35 0.15 1;0.5 0.35 0.15 1;0.5 0.35 0.15 1" additive="sum" fill="freeze"></animateTransform><animateTransform href="#mczz2gtn70915940" attributeName="transform" type="translate" values="455 449.5;455 449.5;455 449.5;455 449.5;455 449.5;455 449.5;455 449.5" dur="6s" repeatCount="indefinite" calcMode="spline" keyTimes="0;0.17;0.27;0.48;0.68;0.85;1" keySplines="0.65 0.19 0.46 0.76;0.5 0.35 0.15 1;0.5 0.35 0.15 1;0.5 0.35 0.15 1;0.5 0.35 0.15 1;0.5 0.35 0.46 0.76" additive="sum" fill="freeze"></animateTransform><animateTransform href="#mczz2gtn70915940" attributeName="transform" type="scale" values="0 1;1 1;1 1;0.6 0.6;1 1;1 1;0 1" dur="6s" repeatCount="indefinite" calcMode="spline" keyTimes="0;0.17;0.27;0.48;0.68;0.85;1" keySplines="0.65 0.19 0.46 0.76;0.5 0.35 0.15 1;0.5 0.35 0.15 1;0.5 0.35 0.15 1;0.5 0.35 0.15 1;0.5 0.35 0.46 0.76" additive="sum" fill="freeze"></animateTransform><animateTransform href="#mczz2gtn70915940" attributeName="transform" type="translate" values="-455 -449.5;-455 -449.5;-455 -449.5;-455 -449.5;-455 -449.5;-455 -449.5;-455 -449.5" dur="6s" repeatCount="indefinite" calcMode="spline" keyTimes="0;0.17;0.27;0.48;0.68;0.85;1" keySplines="0.65 0.19 0.46 0.76;0.5 0.35 0.15 1;0.5 0.35 0.15 1;0.5 0.35 0.15 1;0.5 0.35 0.15 1;0.5 0.35 0.46 0.76" additive="sum" fill="freeze"></animateTransform></svg>

<svg width="910" height="899" viewBox="0 0 910 899" fill="none" xmlns="http://www.w3.org/2000/svg">
<path d="M910 447.22C910 468.67 908.631 489.885 905.879 510.796C902.546 536.379 897.166 561.533 889.767 586.148C887.914 591.939 885.964 597.689 883.875 603.397C877.998 619.553 871.221 635.282 863.601 650.526C856.326 665.135 848.264 679.302 839.51 692.957L801.436 603.397H664.687L747.21 797.526C683.247 850.889 604.445 887.086 517.898 899V510.796H877.694C880.791 489.913 882.34 468.697 882.34 447.22C882.34 425.742 880.847 419.315 877.86 398.846H32.1404C29.167 419.329 27.6596 426.281 27.6596 447.22C27.6596 468.158 29.2362 489.843 32.3479 510.796H392.047V899C305.5 887.086 226.698 850.889 162.735 797.526L245.257 603.397H108.509L70.4351 692.957C52.5394 665.038 37.5894 635.033 26.0691 603.397C25.0457 600.605 24.05 597.799 23.0958 594.98C22.584 593.501 22.0862 592.022 21.6021 590.543C21.5883 590.488 21.5606 590.419 21.5468 590.364C13.5117 564.38 7.68937 537.775 4.14895 510.796C1.38299 489.802 0 468.573 0 447.22C0 425.866 1.32766 405.549 3.96915 385.025C7.49575 357.452 13.4149 330.294 21.6574 303.758C22.9021 299.957 24.216 296.17 25.5713 292.424C26.1106 290.932 26.65 289.453 27.217 287.974C81.6649 141.845 208.982 31.1663 365.01 0L226.864 306.245H363.613L454.972 110.029L546.332 306.245H683.081L544.935 0C695.541 30.0883 819.401 134.257 876.795 272.882C879.478 279.322 881.995 285.832 884.373 292.424C886.074 297.137 887.706 301.892 889.255 306.688C897.028 332.284 902.642 358.447 906.045 385.025C908.672 405.535 910 426.295 910 447.22Z" fill="white"/>
</svg>
